X:1
T: Glasgow Caledonian
P:From the "Strathspey and Reel Society"
R:Strathspey
Q: 128
K:F
M:4/4
L:1/16
|:C2|F3A c3B AF3 F3C|B,3B A,3A GG,3 G,3E|F3A c3A Bd3 c3f|dcBA G3c AF3 F3C|
F3A c3B AF3 F3C|B,3B A,3A GG,3 G,3E|F3A c3A Bd3 c3f|dcBA G3c AF3 F2B2|
A3c B3d cF3 f3e|d3c BAGF EG3 G3B|A3c B3d c3e d3f|efg2 c3b a3f f3d|
cF3 f3e d2c2 AF3|B3A G3F EC3 C3A,|((3B2,2C2D) ((3C2D2E2) ((3D2E2F2) ((3G2A2B2) |c3e g3b af3 f2:|
